X: 250
T:Golden Keyboard, The
C:Reel
R:reel
M:C|
K:EDor
BGEF GFGA|B2 gB fBeB|BGEF GBAG|(3FED AD BDAF|
EDEF GFGA|B2 gB fBec|(3ded ce dBAF|DFAF GE E2 :|
|:Be ~e2 Be ~e2|Beef edBc|dA ~A2 EAce|(3ded ce dBAF|
EDEF GFGA|B2 gB fBec|(3ded ce dBAF|DFAF GE E2 :|

